source/icons/unstarred.svg

<?xml version="1.0" encoding="UTF-8" standalone="no"?>
<!--
   ~  Copyright (c) 2016 horst3180 <http://horst3180.deviantart.com/>
   ~  Copyright (c) 2017 Nicola Fiori (JD342)
   ~
   ~  This file is part of the Arc Integration for Thunderbird, with content
   ~  originating from horst3180's Arc Icon Theme.
   ~
   ~  The Arc Integration for Thunderbird is free software: you can
   ~  redistribute it and/or modify it under the terms of the
   ~  GNU General Public License Version 3 as published by the
   ~  Free Software Foundation.
   ~
   ~  The Arc Integration for Thunderbird is distributed in the hope
   ~  that it will be useful, but WITHOUT ANY WARRANTY; without even the
   ~  implied warranty of MERCHANTABILITY or FITNESS FOR A PARTICULAR PURPOSE.
   ~  See the GNU General Public License for more details.
   ~
   ~  You should have received a copy of the GNU General Public License
   ~  along with the Arc Integration for Thunderbird.
   ~  If not, see <http://www.gnu.org/licenses/>.
   ~
   -->

<svg
   xmlns:dc="http://purl.org/dc/elements/1.1/"
   xmlns:cc="http://creativecommons.org/ns#"
   xmlns:rdf="http://www.w3.org/1999/02/22-rdf-syntax-ns#"
   xmlns:svg="http://www.w3.org/2000/svg"
   xmlns="http://www.w3.org/2000/svg"
   xmlns:sodipodi="http://sodipodi.sourceforge.net/DTD/sodipodi-0.dtd"
   xmlns:inkscape="http://www.inkscape.org/namespaces/inkscape"
   width="16"
   height="16"
   id="icon"
   sodipodi:version="0.32"
   inkscape:version="0.48.5 r10040"
   version="1.0"
   sodipodi:docname="non-starred.svg"
   inkscape:output_extension="org.inkscape.output.svg.inkscape"
   style="display:inline">
  <defs
     id="defs4" />
  <sodipodi:namedview
     id="base"
     pagecolor="#ffffff"
     bordercolor="#e7e7e7"
     borderopacity="1"
     inkscape:pageopacity="0.0"
     inkscape:pageshadow="2"
     inkscape:zoom="32.017796"
     inkscape:cx="5.0587718"
     inkscape:cy="8.7875059"
     inkscape:document-units="px"
     inkscape:current-layer="layer1"
     showgrid="true"
     inkscape:showpageshadow="false"
     showguides="false"
     inkscape:guide-bbox="true"
     inkscape:window-width="1920"
     inkscape:window-height="1026"
     inkscape:window-x="3840"
     inkscape:window-y="25"
     inkscape:window-maximized="1">
    <sodipodi:guide
       orientation="1,0"
       position="0,112"
       id="guide2383" />
    <sodipodi:guide
       orientation="0,1"
       position="26.278146,128"
       id="guide2385" />
    <sodipodi:guide
       orientation="1,0"
       position="128,54.082119"
       id="guide2387" />
    <sodipodi:guide
       orientation="0,1"
       position="78.156291,0"
       id="guide2389" />
    <sodipodi:guide
       orientation="0,1"
       position="60.863576,64.084768"
       id="guide2391" />
    <inkscape:grid
       type="xygrid"
       id="grid3672"
       visible="true"
       enabled="true"
       empspacing="8"
       snapvisiblegridlinesonly="true" />
  </sodipodi:namedview>
  <metadata
     id="metadata7">
    <rdf:RDF>
      <cc:Work
         rdf:about="">
        <dc:format>image/svg+xml</dc:format>
        <dc:type
           rdf:resource="http://purl.org/dc/dcmitype/StillImage" />
        <dc:title />
      </cc:Work>
    </rdf:RDF>
  </metadata>
  <g
     inkscape:label="Icon"
     inkscape:groupmode="layer"
     id="layer1"
     style="display:inline"
     transform="translate(0,-6)">
    <path
       style="color:#000000;fill:#000000;fill-opacity:1;fill-rule:nonzero;stroke:none;stroke-width:1;marker:none;visibility:visible;display:inline;overflow:visible;enable-background:accumulate"
       d="M 8 1.46875 L 5.84375 5.84375 L 1.03125 6.5625 L 4.5 9.96875 L 3.6875 14.78125 L 8 12.5 L 12.3125 14.78125 L 11.5 9.96875 L 15 6.5625 L 10.15625 5.84375 L 8 1.46875 z M 8.03125 3.5625 L 9.3125 6.25 A 0.93318664 0.93318664 0 0 0 10.03125 6.75 L 13 7.1875 L 10.84375 9.28125 A 0.93318664 0.93318664 0 0 0 10.5625 10.09375 L 11.09375 13.0625 L 8.4375 11.65625 A 0.93318664 0.93318664 0 0 0 7.5625 11.65625 L 4.90625 13.0625 L 5.40625 10.09375 A 0.93318664 0.93318664 0 0 0 5.15625 9.28125 L 3 7.21875 L 6 6.78125 A 0.93318664 0.93318664 0 0 0 6.6875 6.28125 L 8.03125 3.5625 z "
       transform="translate(0,6)"
       id="path3841" />
  </g>
</svg>

<?xml version="1.0" encoding="UTF-8" standalone="no"?>
<!--
   ~  Copyright 2016 horst3180 <http://horst3180.deviantart.com/>
   ~  Copyright 2017 Nicola Fiori (JD342)
   ~
   ~  This file contains work originating from horst3180's Arc Icon Theme
   ~  and is part of the Arc Integration for Thunderbird, licensed under
   ~  the terms of the GNU General Public License 3.0.
   ~
   -->

<svg xmlns="http://www.w3.org/2000/svg" width="16" height="16" version="1">
    <path d="M8 1.469L5.844 5.844l-4.813.718L4.5 9.97l-.813 4.812L8 12.5l4.313 2.281L11.5 9.97 15 6.563l-4.844-.72L8 1.47zm.031 2.093L9.312 6.25a.933.933 0 0 0 .72.5L13 7.188 10.844 9.28a.933.933 0 0 0-.281.813l.53 2.969-2.655-1.407a.933.933 0 0 0-.876 0l-2.656 1.406.5-2.968a.933.933 0 0 0-.25-.813L3 7.22l3-.438a.933.933 0 0 0 .688-.5L8.03 3.563z"/>
</svg>
